app/dist/common/images/greenlane.svg

<svg fill="none" height="18" viewBox="0 0 18 18" width="18" xmlns="http://www.w3.org/2000/svg"><path d="m0 0h18v18h-18z" fill="#124735"/><g fill="#f8ffff"><path d="m7.17977 14c-1.86135-.7536-3.17977-2.629-3.17977-4.82313 0-2.85911 2.23858-5.17687 5-5.17687 2.7614 0 5 2.31776 5 5.17687 0 1.69373-.7856 3.19743-2 4.14183v-.8447c.8465-.8261 1.375-1.9977 1.375-3.29713 0-2.50172-1.9588-4.52976-4.375-4.52976-2.41625 0-4.375 2.02804-4.375 4.52976 0 2.02333 1.28131 3.73693 3.04966 4.31823-.19559.1259-.36722.3223-.49489.5049z"/><path clip-rule="evenodd" d="m10.4545 9.75635c-.3646.43015-.8814.89355-1.4545.89355-1.10457 0-2-1.05531-2-2.28553 0-1.23021.89543-2.36437 2-2.36437.5731 0 1.0899.26847 1.4545.69865v-.69865h.5455v7.5375c-.0214.8118-.766 1.4625-1.5 1.4625-.74753 0-1.5-.6749-1.5-1.5075 0-.7794.53105-1.4137 1.21212-1.4925h.78788v.6291h-.78788c-.36764.0742-.64646.4325-.64646.8634 0 .4846.49921.8775.93434.8775.38686 0 .8879-.3105.9545-.72zm0-1.05478c-.1839.7012-.76548 1.29843-1.4545 1.29843-.83679 0-1.41065-.70365-1.41065-1.63563s.57386-1.70625 1.41065-1.70625c.68902 0 1.2706.39411 1.4545 1.09531z" fill-rule="evenodd"/></g></svg>

<!-- by TradingView --><svg width="18" height="18" viewBox="0 0 18 18" fill="none" xmlns="http://www.w3.org/2000/svg">
<rect width="18" height="18" fill="#124735"/>
<path d="M7.17977 14C5.31842 13.2464 4 11.371 4 9.17687C4 6.31776 6.23858 4 9 4C11.7614 4 14 6.31776 14 9.17687C14 10.8706 13.2144 12.3743 12 13.3187V12.474C12.8465 11.6479 13.375 10.4763 13.375 9.17687C13.375 6.67515 11.4162 4.64711 9 4.64711C6.58375 4.64711 4.625 6.67515 4.625 9.17687C4.625 11.2002 5.90631 12.9138 7.67466 13.4951C7.47907 13.621 7.30744 13.8174 7.17977 14Z" fill="#F8FFFF"/>
<path fill-rule="evenodd" clip-rule="evenodd" d="M10.4545 9.75635C10.0899 10.1865 9.5731 10.6499 9 10.6499C7.89543 10.6499 7 9.59459 7 8.36437C7 7.13416 7.89543 6 9 6C9.5731 6 10.0899 6.26847 10.4545 6.69865V6H11V13.5375C10.9786 14.3493 10.234 15 9.5 15C8.75247 15 8 14.3251 8 13.4925C8 12.7131 8.53105 12.0788 9.21212 12H10V12.6291H9.21212C8.84448 12.7033 8.56566 13.0616 8.56566 13.4925C8.56566 13.9771 9.06487 14.37 9.5 14.37C9.88686 14.37 10.3879 14.0595 10.4545 13.65V9.75635ZM10.4545 8.70157C10.2706 9.40277 9.68902 10 9 10C8.16321 10 7.58935 9.29635 7.58935 8.36437C7.58935 7.43239 8.16321 6.65812 9 6.65812C9.68902 6.65812 10.2706 7.05223 10.4545 7.75343V8.70157Z" fill="#F8FFFF"/>
</svg>
